img/icons/social-media/facebook.svg

<?xml version="1.0" encoding="iso-8859-1"?>
<!-- Generator: Adobe Illustrator 18.0.0, SVG Export Plug-In . SVG Version: 6.00 Build 0)  -->
<!DOCTYPE svg PUBLIC "-//W3C//DTD SVG 1.1//EN" "http://www.w3.org/Graphics/SVG/1.1/DTD/svg11.dtd">
<svg version="1.1" id="Capa_1" xmlns="http://www.w3.org/2000/svg" xmlns:xlink="http://www.w3.org/1999/xlink" x="0px" y="0px"
	 viewBox="0 0 112.196 112.196" style="enable-background:new 0 0 112.196 112.196;" xml:space="preserve">
<g>
	<circle style="fill:#b3415e;" cx="56.098" cy="56.098" r="56.098"/>
	<path style="fill:#FFFFFF;" d="M70.201,58.294h-10.01v36.672H45.025V58.294h-7.213V45.406h7.213v-8.34
		c0-5.964,2.833-15.303,15.301-15.303L71.56,21.81v12.51h-8.151c-1.337,0-3.217,0.668-3.217,3.513v7.585h11.334L70.201,58.294z"/>
</g>
<g>
</g>
<g>
</g>
<g>
</g>
<g>
</g>
<g>
</g>
<g>
</g>
<g>
</g>
<g>
</g>
<g>
</g>
<g>
</g>
<g>
</g>
<g>
</g>
<g>
</g>
<g>
</g>
<g>
</g>
</svg>

<?xml version="1.0" encoding="UTF-8"?>
<!DOCTYPE svg PUBLIC "-//W3C//DTD SVG 1.1//EN" "http://www.w3.org/Graphics/SVG/1.1/DTD/svg11.dtd">
<svg version="1.1" xmlns="http://www.w3.org/2000/svg" xmlns:xlink="http://www.w3.org/1999/xlink" x="0" y="0" width="112.196" height="112.196" viewBox="0, 0, 112.196, 112.196">
  <g id="Layer_1">
    <g>
      <g>
        <path d="M112.196,56.098 C112.196,87.08 87.08,112.196 56.098,112.196 C25.116,112.196 0,87.08 0,56.098 C0,25.116 25.116,0 56.098,0 C87.08,0 112.196,25.116 112.196,56.098 z" fill="#B3415E"/>
        <path d="M56.098,0 C87.08,0 112.196,25.116 112.196,56.098 C112.196,87.08 87.08,112.196 56.098,112.196 C25.116,112.196 0,87.08 0,56.098 C0,25.116 25.116,0 56.098,0 z M56.098,3 C26.773,3 3,26.773 3,56.098 C3,85.423 26.773,109.196 56.098,109.196 C85.423,109.196 109.196,85.423 109.196,56.098 C109.196,26.773 85.423,3 56.098,3 z" fill="#3B102B"/>
      </g>
      <path d="M70.201,58.294 L60.191,58.294 L60.191,94.966 L45.025,94.966 L45.025,58.294 L37.812,58.294 L37.812,45.406 L45.025,45.406 L45.025,37.066 C45.025,31.102 47.858,21.763 60.326,21.763 L71.56,21.81 L71.56,34.32 L63.409,34.32 C62.072,34.32 60.192,34.988 60.192,37.833 L60.192,45.418 L71.526,45.418 L70.201,58.294 z" fill="#FFFFFF"/>
    </g>
  </g>
</svg>
